X: 34
T:Figure of Three (#144), The
M:6/8
L:1/8
S:Clinton's Gems of Ireland 1841
K:D
d2 e fgf|fed g2 e|d2 B B/2c/2dB|d2 B B/2c/2dB|
d2 e fgf|fed g2 e|dBA A/2B/2cA|dBA ABA:|
|:"tr"aga bge|fed g2 e|d2 B B/2c/2dB|d2 B B/2c/2dB|
aga bge|fed g2 e|dBA A/2B/2cA|dBA Afg:|
|:afd gec|afd g2 e|d2 B B/2c/2dB|d2 B Bcd|
afd gec|afd g2 e|dBA A/2B/2cA|dBA A3:||

